X:9
T:Stybarrow Crag
C:Trad English
M:C
S: Greg Stephens Collection
L:1/8
K:G
dc|B2dB c2ec|d2ef g2fe|dgdB gdcB|B2A2A2dc|
BBBd ccce|dddf g2fe|dgdB AGFA|G2B2G2:|
|:fe|defd adfd|fdec BGdB|cAec BGdB|AGAB A2dc|
Bdce dgfa|gdef g2fe|dgdB AGAB|G2B2G2:|
%%vskip .5cm
